X: 140
T: Pop Goes the Weasel
M:6/8
L:1/8
Q:160
S:Playford
O:Manuscript
A:English
K:G
D | G2B A2c | BdB G2D | G2B A2d | B3 G2D | G2B A2c | BdB G3 | {^d}e3 A2=d | B3 G3 :|
|: g2f e2g | faf def | g2f efg | f3 d2z | {d}c2B c2d | e2f g2z | {f}g2z A2d | B3 G2 :|
